app/dist/common/images/chong-qing-changan.svg

<svg height="18" viewBox="0 0 18 18" width="18" xmlns="http://www.w3.org/2000/svg"><path d="m0 9a9 9 0 1 1 18 0 9 9 0 0 1 -18 0z" fill="#f0f3fa"/><path d="m9 4c3.1 0 6 .71 6 4.1 0 3.93-2.02 5.95-6 5.9-3.97-.05-6-1.89-6-5.9 0-3.35 2.9-4.1 6-4.1zm3 .83v2.65c0 2.13-1.67 4.27-2.64 6.02 3.48-.07 5.14-2 5.14-5.4 0-1.83-.99-2.78-2.5-3.27zm-3.36 8.67c-.92-1.67-2.64-3.79-2.64-5.91v-2.76c-1.52.47-2.5 1.47-2.5 3.28 0 3.39 1.65 5.33 5.14 5.39zm-2.12-8.82c.44.99 2.22 5.02 2.3 5.17.05.1.11.15.18.15.06 0 .13-.05.17-.15.08-.15 1.91-4.19 2.35-5.17-.82-.17-1.68-.18-2.52-.18-.83 0-1.67.01-2.48.18z" fill="#0b457f"/></svg>

<!-- by TradingView --><svg width="18" height="18" viewBox="0 0 18 18" xmlns="http://www.w3.org/2000/svg"><path d="M0 9a9 9 0 1 1 18 0A9 9 0 0 1 0 9Z" fill="#F0F3FA"/><path d="M9 4c3.1 0 6 .71 6 4.1 0 3.93-2.02 5.95-6 5.9-3.97-.05-6-1.89-6-5.9C3 4.75 5.9 4 9 4Zm3 .83v2.65c0 2.13-1.67 4.27-2.64 6.02 3.48-.07 5.14-2 5.14-5.4 0-1.83-.99-2.78-2.5-3.27ZM8.64 13.5C7.72 11.83 6 9.71 6 7.59V4.83C4.48 5.3 3.5 6.3 3.5 8.11c0 3.39 1.65 5.33 5.14 5.39ZM6.52 4.68c.44.99 2.22 5.02 2.3 5.17.05.1.11.15.18.15.06 0 .13-.05.17-.15.08-.15 1.91-4.19 2.35-5.17C10.7 4.51 9.84 4.5 9 4.5c-.83 0-1.67.01-2.48.18Z" fill="#0B457F"/></svg>
